X: 43314
T: Woods Of Old Limerick, The
R: jig
M: 6/8
K: Fmajor
AFF GAB|cff _ecB|AFF GAB|GCC GAB|
AFF GAB|cff _ecB|AFF GAB|GFE F2:|
aff fgf|_ecc cfg|aff fga|bge ffg|
agf gfe|fgf _ecB|AFF GAB|GFE F2:|

